X: 100358
P: AERIAL QUADRILLE Part 5.
M: 2/4
L: 1/16
K: G
vdud !segno!|\
d2^c2d2 BB | B2^A2B2 cc | A2^G2A2B2 | GDEF GABc |\
d2^c2d2 BB | {c}B2^A2B2 cc | A2^G2A2B2 | G2z2 vg2 ||[K:D]
vAuA |\


